img/icons/mastercard_logo.svg

<svg width="40" height="30" viewBox="0 0 40 30" fill="none" xmlns="http://www.w3.org/2000/svg">
<path d="M7.64347 29.5514V27.6136C7.65522 27.4506 7.6307 27.2871 7.57154 27.134C7.51238 26.9808 7.41995 26.8416 7.30039 26.7254C7.18083 26.6093 7.03689 26.519 6.87817 26.4605C6.71945 26.4021 6.54958 26.3768 6.37989 26.3863C6.15777 26.3723 5.93582 26.4159 5.7372 26.5125C5.53858 26.6091 5.37058 26.7551 5.25074 26.9354C5.14149 26.7605 4.98518 26.6172 4.79828 26.5206C4.61139 26.4239 4.40082 26.3776 4.18879 26.3863C4.00397 26.3773 3.81991 26.4149 3.65486 26.4954C3.48981 26.5758 3.34949 26.6963 3.24783 26.8449V26.4638H2.54883V29.5514H3.25455V27.8526C3.23954 27.747 3.24898 27.6396 3.28221 27.5379C3.31543 27.4362 3.37162 27.3429 3.44675 27.2645C3.52188 27.1861 3.6141 27.1247 3.71681 27.0845C3.81953 27.0444 3.9302 27.0265 4.04093 27.0323C4.50469 27.0323 4.73993 27.3229 4.73993 27.8462V29.5644H5.44565V27.8526C5.43125 27.7471 5.44113 27.6399 5.47458 27.5385C5.50803 27.4371 5.56424 27.344 5.63925 27.2657C5.71425 27.1875 5.80621 27.126 5.90864 27.0857C6.01107 27.0453 6.12146 27.0271 6.23203 27.0323C6.70923 27.0323 6.93775 27.3229 6.93775 27.8462V29.5644L7.64347 29.5514ZM18.0848 26.4638H16.9355V25.5272H16.2298V26.4638H15.5912V27.0775H16.2432V28.4986C16.2432 29.2155 16.5322 29.6419 17.3589 29.6419C17.6678 29.6429 17.9706 29.56 18.2327 29.4029L18.031 28.828C17.8436 28.9354 17.6308 28.9954 17.4127 29.0024C17.0766 29.0024 16.9489 28.7957 16.9489 28.4856V27.0775H18.0915L18.0848 26.4638ZM24.0465 26.3863C23.876 26.3815 23.7074 26.421 23.5584 26.5005C23.4093 26.5801 23.2854 26.6969 23.1996 26.8385V26.4638H22.5073V29.5514H23.2063V27.8203C23.2063 27.31 23.4348 27.0258 23.8784 27.0258C24.0279 27.0238 24.1764 27.0502 24.3153 27.1033L24.5304 26.4574C24.3708 26.4025 24.2026 26.3741 24.033 26.3734L24.0465 26.3863ZM15.0334 26.7093C14.6377 26.4832 14.1828 26.3711 13.7228 26.3863C12.9095 26.3863 12.3785 26.761 12.3785 27.3746C12.3785 27.8785 12.7684 28.1885 13.4875 28.2854L13.8236 28.3306C14.2067 28.3823 14.3882 28.4792 14.3882 28.6536C14.3882 28.8926 14.1328 29.0282 13.6556 29.0282C13.2717 29.0389 12.8953 28.9251 12.5869 28.7053L12.2508 29.2285C12.658 29.5017 13.1457 29.6421 13.6421 29.629C14.5696 29.629 15.1073 29.2091 15.1073 28.6213C15.1073 28.0335 14.6839 27.7945 13.9849 27.6976L13.6488 27.6524C13.3464 27.6136 13.1044 27.5555 13.1044 27.3488C13.1044 27.1421 13.3329 26.9871 13.716 26.9871C14.0701 26.991 14.4173 27.0822 14.7242 27.2519L15.0334 26.7093ZM33.7552 26.3863C33.5848 26.3815 33.4161 26.421 33.2671 26.5005C33.118 26.5801 32.9941 26.6969 32.9083 26.8385V26.4638H32.216V29.5514H32.915V27.8203C32.915 27.31 33.1436 27.0258 33.5872 27.0258C33.7367 27.0238 33.8851 27.0502 34.024 27.1033L34.2391 26.4574C34.0795 26.4025 33.9113 26.3741 33.7417 26.3734L33.7552 26.3863ZM24.7488 28.0012C24.7405 28.2182 24.7794 28.4344 24.8631 28.6361C24.9467 28.8378 25.0732 29.0205 25.2346 29.1725C25.3959 29.3245 25.5884 29.4425 25.7999 29.5188C26.0114 29.5952 26.2372 29.6283 26.4627 29.616C26.8824 29.6366 27.2949 29.5052 27.6188 29.2478L27.2827 28.7053C27.0411 28.8823 26.7464 28.9798 26.4426 28.983C26.1842 28.9629 25.9431 28.8501 25.7674 28.667C25.5916 28.4838 25.4941 28.2438 25.4941 27.9947C25.4941 27.7456 25.5916 27.5056 25.7674 27.3225C25.9431 27.1394 26.1842 27.0265 26.4426 27.0064C26.7464 27.0097 27.0411 27.1071 27.2827 27.2842L27.6188 26.7416C27.2949 26.4843 26.8824 26.3529 26.4627 26.3734C26.2372 26.3611 26.0114 26.3942 25.7999 26.4706C25.5884 26.547 25.3959 26.6649 25.2346 26.8169C25.0732 26.9689 24.9467 27.1516 24.8631 27.3533C24.7794 27.555 24.7405 27.7713 24.7488 27.9883V28.0012ZM31.2952 28.0012V26.4638H30.5962V26.8385C30.4775 26.6917 30.3242 26.5741 30.1489 26.4955C29.9736 26.4169 29.7814 26.3795 29.5881 26.3863C29.1424 26.3863 28.715 26.5565 28.3999 26.8593C28.0848 27.1622 27.9078 27.5729 27.9078 28.0012C27.9078 28.4295 28.0848 28.8402 28.3999 29.1431C28.715 29.4459 29.1424 29.616 29.5881 29.616C29.7814 29.6229 29.9736 29.5855 30.1489 29.5068C30.3242 29.4282 30.4775 29.3107 30.5962 29.1639V29.5385H31.2952V28.0012ZM28.6941 28.0012C28.7053 27.8194 28.7715 27.6448 28.8846 27.4988C28.9977 27.3527 29.1528 27.2417 29.3308 27.1793C29.5088 27.1169 29.7018 27.1058 29.8862 27.1475C30.0706 27.1893 30.2383 27.2819 30.3686 27.414C30.4989 27.5462 30.5862 27.7121 30.6196 27.8913C30.6531 28.0705 30.6313 28.2552 30.5569 28.4226C30.4825 28.59 30.3588 28.7329 30.201 28.8336C30.0432 28.9344 29.8582 28.9885 29.6687 28.9895C29.5357 28.9911 29.4037 28.9662 29.2811 28.9164C29.1585 28.8667 29.048 28.7931 28.9565 28.7002C28.8649 28.6074 28.7944 28.4974 28.7492 28.3771C28.7041 28.2568 28.6853 28.1288 28.6941 28.0012ZM20.2591 26.3863C19.8134 26.3923 19.3885 26.5682 19.0778 26.8753C18.7671 27.1824 18.5961 27.5955 18.6023 28.0238C18.6086 28.4521 18.7916 28.8604 19.1111 29.159C19.4306 29.4576 19.8605 29.622 20.3061 29.616C20.7896 29.6399 21.2651 29.4903 21.6403 29.1962L21.3042 28.6988C21.0389 28.9033 20.7101 29.017 20.37 29.0218C20.1389 29.0409 19.9092 28.9726 19.7297 28.8315C19.5503 28.6903 19.4351 28.4875 19.4089 28.266H21.7949C21.7949 28.182 21.7949 28.0981 21.7949 28.0076C21.7949 27.0387 21.1698 26.3928 20.2692 26.3928L20.2591 26.3863ZM20.2591 26.9871C20.3637 26.9849 20.4677 27.0026 20.5652 27.0391C20.6627 27.0756 20.7517 27.1302 20.8272 27.1998C20.9028 27.2694 20.9633 27.3526 21.0053 27.4446C21.0474 27.5367 21.0702 27.6358 21.0723 27.7363H19.3921C19.4042 27.529 19.5004 27.3345 19.6599 27.1945C19.8195 27.0544 20.0297 26.98 20.2456 26.9871H20.2591ZM37.7711 28.0076V25.2236H37.099V26.8385C36.9803 26.6917 36.8269 26.5741 36.6516 26.4955C36.4763 26.4169 36.2841 26.3795 36.0908 26.3863C35.6451 26.3863 35.2178 26.5565 34.9026 26.8593C34.5875 27.1622 34.4105 27.5729 34.4105 28.0012C34.4105 28.4295 34.5875 28.8402 34.9026 29.1431C35.2178 29.4459 35.6451 29.616 36.0908 29.616C36.2841 29.6229 36.4763 29.5855 36.6516 29.5068C36.8269 29.4282 36.9803 29.3107 37.099 29.1639V29.5385H37.7711V28.0076ZM38.9372 29.1025C38.9809 29.102 39.0243 29.1097 39.0649 29.1251C39.1035 29.1403 39.1388 29.1622 39.1691 29.1897C39.1986 29.2176 39.2225 29.2504 39.2397 29.2866C39.2567 29.3243 39.2655 29.365 39.2655 29.4061C39.2655 29.4472 39.2567 29.4879 39.2397 29.5256C39.2225 29.5618 39.1986 29.5946 39.1691 29.6225C39.1388 29.65 39.1035 29.672 39.0649 29.6871C39.0247 29.7041 38.9812 29.7129 38.9372 29.7129C38.8735 29.7125 38.8112 29.6946 38.7577 29.6614C38.7041 29.6283 38.6615 29.5812 38.6348 29.5256C38.6179 29.4878 38.6092 29.4472 38.6092 29.4061C38.6092 29.365 38.6179 29.3244 38.6348 29.2866C38.6519 29.2504 38.6758 29.2176 38.7053 29.1897C38.7356 29.1622 38.7709 29.1403 38.8095 29.1251C38.8533 29.1084 38.9002 29.1007 38.9473 29.1025H38.9372ZM38.9372 29.6483C38.9707 29.6485 39.0039 29.6419 39.0347 29.629C39.0636 29.6165 39.0898 29.599 39.1119 29.5773C39.154 29.5332 39.1773 29.4756 39.1773 29.4158C39.1773 29.356 39.154 29.2984 39.1119 29.2543C39.0898 29.2325 39.0636 29.215 39.0347 29.2026C39.0039 29.1898 38.9707 29.1832 38.9372 29.1833C38.9037 29.1834 38.8706 29.19 38.8397 29.2026C38.8095 29.2145 38.7821 29.2321 38.7591 29.2543C38.7171 29.2984 38.6937 29.356 38.6937 29.4158C38.6937 29.4756 38.7171 29.5332 38.7591 29.5773C38.7822 29.5994 38.8096 29.617 38.8397 29.629C38.8736 29.643 38.9104 29.6496 38.9473 29.6483H38.9372ZM38.9574 29.264C38.9887 29.2625 39.0196 29.2717 39.0447 29.2898C39.055 29.298 39.0631 29.3084 39.0684 29.3202C39.0737 29.332 39.0759 29.3449 39.075 29.3577C39.0755 29.3684 39.0736 29.3791 39.0696 29.3891C39.0655 29.3991 39.0594 29.4082 39.0515 29.4158C39.032 29.4328 39.0071 29.443 38.9809 29.4449L39.0783 29.5514H39.0011L38.9103 29.4449H38.8801V29.5514H38.8162V29.2672L38.9574 29.264ZM38.8834 29.3189V29.3964H38.9574C38.9705 29.4002 38.9845 29.4002 38.9977 29.3964C39.0001 29.3919 39.0013 29.3869 39.0013 29.3819C39.0013 29.3768 39.0001 29.3719 38.9977 29.3673C39.0001 29.3628 39.0013 29.3579 39.0013 29.3528C39.0013 29.3478 39.0001 29.3428 38.9977 29.3383C38.9845 29.3345 38.9705 29.3345 38.9574 29.3383L38.8834 29.3189ZM35.1868 28.0076C35.1979 27.8259 35.2641 27.6512 35.3773 27.5052C35.4904 27.3592 35.6455 27.2481 35.8234 27.1857C36.0014 27.1233 36.1945 27.1123 36.3789 27.154C36.5633 27.1957 36.7309 27.2884 36.8612 27.4205C36.9916 27.5526 37.0788 27.7185 37.1123 27.8977C37.1457 28.0769 37.1239 28.2616 37.0495 28.4291C36.9751 28.5965 36.8514 28.7394 36.6936 28.8401C36.5358 28.9408 36.3508 28.995 36.1614 28.9959C36.0283 28.9975 35.8963 28.9727 35.7738 28.9229C35.6512 28.8731 35.5406 28.7995 35.4491 28.7067C35.3576 28.6139 35.287 28.5038 35.2419 28.3835C35.1967 28.2632 35.178 28.1352 35.1868 28.0076ZM11.5854 28.0076V26.4638H10.8864V26.8385C10.7677 26.6917 10.6144 26.5741 10.4391 26.4955C10.2638 26.4169 10.0716 26.3795 9.87826 26.3863C9.43261 26.3863 9.00523 26.5565 8.69011 26.8593C8.37499 27.1622 8.19796 27.5729 8.19796 28.0012C8.19796 28.4295 8.37499 28.8402 8.69011 29.1431C9.00523 29.4459 9.43261 29.616 9.87826 29.616C10.0716 29.6229 10.2638 29.5855 10.4391 29.5068C10.6144 29.4282 10.7677 29.3107 10.8864 29.1639V29.5385H11.5854V28.0076ZM8.98434 28.0076C8.99549 27.8259 9.0617 27.6512 9.17481 27.5052C9.28793 27.3592 9.44302 27.2481 9.62098 27.1857C9.79895 27.1233 9.99201 27.1123 10.1764 27.154C10.3608 27.1957 10.5285 27.2884 10.6588 27.4205C10.7891 27.5526 10.8764 27.7185 10.9098 27.8977C10.9433 28.0769 10.9215 28.2616 10.8471 28.4291C10.7727 28.5965 10.649 28.7394 10.4912 28.8401C10.3334 28.9408 10.1483 28.995 9.95891 28.9959C9.82529 28.9985 9.69258 28.9743 9.5692 28.9249C9.44583 28.8755 9.33447 28.802 9.24221 28.7091C9.14994 28.6162 9.07878 28.5058 9.03323 28.3851C8.98768 28.2643 8.96875 28.1358 8.97762 28.0076H8.98434Z" fill="white" fill-opacity="0.5"/>
<path d="M25.3886 2.93555H14.8027V21.2189H25.3886V2.93555Z" fill="#FF5F00"/>
<path d="M15.4743 12.0797C15.4723 10.3187 15.8874 8.58025 16.6879 6.99614C17.4885 5.41203 18.6536 4.02375 20.0951 2.93644C18.3103 1.58843 16.167 0.750181 13.9099 0.5175C11.6529 0.28482 9.3733 0.667093 7.33165 1.62063C5.28999 2.57417 3.56866 4.06049 2.36439 5.90974C1.16012 7.75899 0.521484 9.89655 0.521484 12.0781C0.521484 14.2597 1.16012 16.3972 2.36439 18.2465C3.56866 20.0957 5.28999 21.5821 7.33165 22.5356C9.3733 23.4891 11.6529 23.8714 13.9099 23.6387C16.167 23.4061 18.3103 22.5678 20.0951 21.2198C18.6541 20.1328 17.4892 18.7451 16.6887 17.1615C15.8881 15.578 15.4728 13.8403 15.4743 12.0797Z" fill="#EB001B"/>
<path d="M39.6711 12.0789C39.671 14.2606 39.0323 16.3983 37.8278 18.2476C36.6233 20.0969 34.9017 21.5832 32.8598 22.5366C30.8179 23.49 28.538 23.8721 26.2809 23.639C24.0237 23.406 21.8803 22.5674 20.0957 21.2189C21.5361 20.131 22.7007 18.7429 23.5014 17.1593C24.3022 15.5757 24.7183 13.838 24.7183 12.0773C24.7183 10.3166 24.3022 8.57887 23.5014 6.99527C22.7007 5.41167 21.5361 4.02353 20.0957 2.93558C21.8803 1.58715 24.0237 0.748499 26.2809 0.515484C28.538 0.28247 30.8179 0.664497 32.8598 1.6179C34.9017 2.5713 36.6233 4.0576 37.8278 5.90691C39.0323 7.75622 39.671 9.89392 39.6711 12.0757V12.0789Z" fill="#F7B500"/>
<path d="M38.5154 19.281V18.9064H38.6733V18.8289H38.2734V18.9064H38.4448V19.281H38.5154ZM39.2917 19.281V18.8289H39.1707L39.0296 19.1518L38.8884 18.8289H38.7809V19.281H38.8683V18.9419L38.9993 19.2358H39.0901L39.2211 18.9419V19.2842L39.2917 19.281Z" fill="#F7B500"/>
</svg>

<svg width="40" height="30" fill="none" xmlns="http://www.w3.org/2000/svg"><path d="M7.643 29.551v-1.937a1.108 1.108 0 00-.071-.48 1.146 1.146 0 00-.272-.409 1.203 1.203 0 00-.422-.265 1.243 1.243 0 00-.498-.074 1.286 1.286 0 00-.643.127 1.227 1.227 0 00-.486.422 1.16 1.16 0 00-.453-.414 1.219 1.219 0 00-.61-.135 1.097 1.097 0 00-.533.11c-.165.08-.306.2-.407.349v-.381h-.7v3.087h.707v-1.698a.696.696 0 01.192-.588.78.78 0 01.594-.232c.464 0 .699.29.699.813v1.718h.706v-1.711a.7.7 0 01.193-.587.782.782 0 01.593-.233c.477 0 .706.29.706.813v1.718l.705-.013zm10.442-3.087h-1.15v-.937h-.705v.937h-.639v.614h.652v1.42c0 .717.29 1.144 1.116 1.144a1.69 1.69 0 00.874-.24l-.202-.574a1.33 1.33 0 01-.618.174c-.336 0-.464-.206-.464-.516v-1.409h1.142l-.006-.613zm5.962-.078a.98.98 0 00-.489.114.931.931 0 00-.358.338v-.374h-.693v3.087h.7v-1.73c0-.511.228-.795.671-.795.15-.002.298.024.437.077l.215-.646a1.55 1.55 0 00-.497-.084l.014.013zm-9.014.323a2.48 2.48 0 00-1.31-.323c-.814 0-1.345.375-1.345.989 0 .503.39.814 1.11.91l.336.046c.383.051.564.148.564.323 0 .239-.255.374-.732.374-.384.01-.76-.103-1.07-.323l-.335.524c.407.273.895.413 1.391.4.928 0 1.465-.42 1.465-1.008 0-.587-.423-.826-1.122-.923l-.336-.046c-.303-.038-.545-.097-.545-.303 0-.207.229-.362.612-.362.354.004.701.095 1.008.265l.31-.543zm18.722-.323a.98.98 0 00-.488.114.931.931 0 00-.359.338v-.374h-.692v3.087h.699v-1.73c0-.511.229-.795.672-.795.15-.002.298.024.437.077l.215-.646a1.55 1.55 0 00-.497-.084l.013.013zm-9.006 1.615c-.008.217.03.433.114.635s.21.384.372.537c.16.152.353.27.565.346.211.076.437.11.663.097.42.02.832-.11 1.156-.368l-.336-.543a1.449 1.449 0 01-.84.278 1.05 1.05 0 01-.676-.316.97.97 0 01-.273-.672c0-.25.098-.49.273-.672.176-.184.417-.297.676-.317.303.004.598.101.84.278l.336-.542a1.725 1.725 0 00-1.156-.369 1.683 1.683 0 00-.663.098 1.632 1.632 0 00-.565.346 1.556 1.556 0 00-.372.536 1.505 1.505 0 00-.114.635v.013zm6.546 0v-1.537h-.699v.375a1.212 1.212 0 00-.447-.343 1.263 1.263 0 00-.56-.11c-.447 0-.874.17-1.19.473a1.584 1.584 0 00-.491 1.142c0 .428.177.84.492 1.142.315.303.742.473 1.188.473.193.007.386-.03.56-.11.176-.078.33-.195.448-.342v.374h.7v-1.537zm-2.6 0a.911.911 0 01.19-.502.968.968 0 01.446-.32c.178-.062.37-.073.555-.031a.982.982 0 01.483.266.92.92 0 01.25.477.9.9 0 01-.062.532.943.943 0 01-.356.41 1 1 0 01-.532.157.999.999 0 01-.713-.29.895.895 0 01-.262-.699zm-8.436-1.615a1.71 1.71 0 00-1.181.49c-.31.306-.482.72-.476 1.148.007.428.19.836.51 1.135.319.299.748.463 1.194.457.484.024.96-.126 1.334-.42l-.336-.497a1.568 1.568 0 01-.934.323.915.915 0 01-.64-.19.847.847 0 01-.321-.566h2.386v-.258c0-.97-.625-1.615-1.526-1.615l-.01-.007zm0 .601a.824.824 0 01.568.213.765.765 0 01.245.536h-1.68a.782.782 0 01.268-.541c.16-.14.37-.215.586-.208h.013zm17.512 1.02v-2.783H37.1v1.614a1.213 1.213 0 00-.447-.343 1.263 1.263 0 00-.561-.109c-.446 0-.873.17-1.188.473a1.584 1.584 0 00-.492 1.142c0 .428.176.84.492 1.142.315.303.742.473 1.188.473.193.007.385-.03.56-.11.176-.078.33-.195.448-.342v.374h.672v-1.53zm1.166 1.095a.34.34 0 01.232.087.32.32 0 01.07.098.29.29 0 01-.07.335.339.339 0 01-.104.065.328.328 0 01-.128.026.345.345 0 01-.18-.052.292.292 0 01-.052-.472.34.34 0 01.242-.087h-.01zm0 .546a.249.249 0 00.175-.07.234.234 0 000-.324.25.25 0 00-.272-.051.246.246 0 00-.08.051.234.234 0 000 .323.258.258 0 00.188.071h-.01zm.02-.384a.138.138 0 01.088.026.078.078 0 01.03.068.075.075 0 01-.023.058.12.12 0 01-.071.029l.097.106h-.077l-.09-.106h-.03v.106h-.065v-.284l.141-.003zm-.074.055v.077h.074a.073.073 0 00.04 0 .03.03 0 000-.029.03.03 0 000-.029.073.073 0 00-.04 0l-.074-.02zm-3.696-1.311a.91.91 0 01.19-.503.97.97 0 01.446-.32c.178-.062.371-.073.556-.031a.981.981 0 01.482.267.9.9 0 01.188 1.009.943.943 0 01-.355.41.999.999 0 01-.533.156.998.998 0 01-.712-.29.893.893 0 01-.262-.7zm-23.602 0v-1.544h-.699v.375a1.212 1.212 0 00-.447-.343 1.263 1.263 0 00-.56-.11c-.446 0-.874.17-1.189.473a1.584 1.584 0 00-.492 1.142c0 .428.177.84.492 1.142.315.303.743.473 1.188.473a1.24 1.24 0 001.008-.452v.374h.7v-1.53zm-2.6 0a.911.911 0 01.19-.503.97.97 0 01.446-.32c.178-.062.371-.073.555-.031a.981.981 0 01.483.267.9.9 0 01.188 1.009.943.943 0 01-.356.41 1 1 0 01-.532.156.997.997 0 01-.717-.287.894.894 0 01-.265-.701h.007z" fill="#fff" fill-opacity=".5"/><path d="M25.389 2.936H14.803v18.283h10.586V2.936z" fill="#FF5F00"/><path d="M15.474 12.08c-.002-1.761.413-3.5 1.214-5.084a11.707 11.707 0 013.407-4.06A12.37 12.37 0 0013.91.518 12.528 12.528 0 007.332 1.62a11.947 11.947 0 00-4.968 4.29 11.295 11.295 0 00-1.843 6.168c0 2.182.64 4.32 1.843 6.169a11.947 11.947 0 004.968 4.289 12.528 12.528 0 006.578 1.103 12.37 12.37 0 006.185-2.42 11.707 11.707 0 01-3.406-4.058 11.234 11.234 0 01-1.215-5.081z" fill="#EB001B"/><path d="M39.671 12.079c0 2.182-.639 4.32-1.843 6.169a11.947 11.947 0 01-4.968 4.289 12.527 12.527 0 01-6.58 1.102 12.37 12.37 0 01-6.184-2.42 11.726 11.726 0 003.405-4.06 11.254 11.254 0 001.217-5.082c0-1.76-.416-3.498-1.217-5.082a11.726 11.726 0 00-3.405-4.06A12.37 12.37 0 0126.28.516a12.528 12.528 0 016.579 1.103 11.947 11.947 0 014.968 4.289 11.295 11.295 0 011.843 6.169v.003zm-1.156 7.202v-.375h.158v-.077h-.4v.077h.172v.375h.07zm.777 0v-.452h-.121l-.141.323-.142-.323h-.107v.452h.087v-.34l.131.295h.091l.131-.294v.342l.07-.003z" fill="#F7B500"/></svg>
